img/icons/logo.svg

<svg width="101" height="23" viewBox="0 0 101 23" fill="none" xmlns="http://www.w3.org/2000/svg">
<path d="M6.45996 11.2592L4.29996 6.90922H4.20996V21.9992H0.459961V1.05922H4.80996L11.11 11.7992L13.27 16.1492H13.36V1.05922H17.11V21.9992H12.76L6.45996 11.2592Z" fill="white"/>
<path d="M37.7425 22.3592C36.3625 22.3592 35.1125 22.1292 33.9925 21.6692C32.8725 21.2092 31.9125 20.5192 31.1125 19.5992C30.3325 18.6792 29.7225 17.5492 29.2825 16.2092C28.8425 14.8692 28.6225 13.3092 28.6225 11.5292C28.6225 9.76922 28.8425 8.21922 29.2825 6.87922C29.7225 5.51922 30.3325 4.37922 31.1125 3.45922C31.9125 2.53922 32.8725 1.84922 33.9925 1.38922C35.1125 0.929219 36.3625 0.699219 37.7425 0.699219C39.1225 0.699219 40.3725 0.929219 41.4925 1.38922C42.6125 1.84922 43.5725 2.53922 44.3725 3.45922C45.1725 4.37922 45.7825 5.51922 46.2025 6.87922C46.6425 8.21922 46.8625 9.76922 46.8625 11.5292C46.8625 13.3092 46.6425 14.8692 46.2025 16.2092C45.7825 17.5492 45.1725 18.6792 44.3725 19.5992C43.5725 20.5192 42.6125 21.2092 41.4925 21.6692C40.3725 22.1292 39.1225 22.3592 37.7425 22.3592ZM37.7425 18.8492C39.2425 18.8492 40.4325 18.3492 41.3125 17.3492C42.2125 16.3492 42.6625 14.9492 42.6625 13.1492V9.90922C42.6625 8.10922 42.2125 6.70922 41.3125 5.70922C40.4325 4.70922 39.2425 4.20922 37.7425 4.20922C36.2425 4.20922 35.0425 4.70922 34.1425 5.70922C33.2625 6.70922 32.8225 8.10922 32.8225 9.90922V13.1492C32.8225 14.9492 33.2625 16.3492 34.1425 17.3492C35.0425 18.3492 36.2425 18.8492 37.7425 18.8492Z" fill="white"/>
<path d="M62.4782 21.9992L55.6382 1.05922H59.6882L62.8982 11.2592L64.7582 18.2192H64.8482L66.6782 11.2592L69.8882 1.05922H73.8182L66.9782 21.9992H62.4782Z" fill="white"/>
<path d="M91.7073 22.3592C90.3273 22.3592 89.0773 22.1292 87.9573 21.6692C86.8373 21.2092 85.8773 20.5192 85.0773 19.5992C84.2973 18.6792 83.6873 17.5492 83.2473 16.2092C82.8073 14.8692 82.5873 13.3092 82.5873 11.5292C82.5873 9.76922 82.8073 8.21922 83.2473 6.87922C83.6873 5.51922 84.2973 4.37922 85.0773 3.45922C85.8773 2.53922 86.8373 1.84922 87.9573 1.38922C89.0773 0.929219 90.3273 0.699219 91.7073 0.699219C93.0873 0.699219 94.3373 0.929219 95.4573 1.38922C96.5773 1.84922 97.5373 2.53922 98.3373 3.45922C99.1373 4.37922 99.7473 5.51922 100.167 6.87922C100.607 8.21922 100.827 9.76922 100.827 11.5292C100.827 13.3092 100.607 14.8692 100.167 16.2092C99.7473 17.5492 99.1373 18.6792 98.3373 19.5992C97.5373 20.5192 96.5773 21.2092 95.4573 21.6692C94.3373 22.1292 93.0873 22.3592 91.7073 22.3592ZM91.7073 18.8492C93.2073 18.8492 94.3973 18.3492 95.2773 17.3492C96.1773 16.3492 96.6273 14.9492 96.6273 13.1492V9.90922C96.6273 8.10922 96.1773 6.70922 95.2773 5.70922C94.3973 4.70922 93.2073 4.20922 91.7073 4.20922C90.2073 4.20922 89.0073 4.70922 88.1073 5.70922C87.2273 6.70922 86.7873 8.10922 86.7873 9.90922V13.1492C86.7873 14.9492 87.2273 16.3492 88.1073 17.3492C89.0073 18.3492 90.2073 18.8492 91.7073 18.8492Z" fill="white"/>
</svg>

<svg width="101" height="23" fill="none" xmlns="http://www.w3.org/2000/svg"><path d="M6.46 11.26 4.3 6.91h-.09V22H.46V1.06h4.35l6.3 10.74 2.16 4.35h.09V1.06h3.75V22h-4.35l-6.3-10.74ZM37.742 22.36c-1.38 0-2.63-.23-3.75-.69a7.589 7.589 0 0 1-2.88-2.07c-.78-.92-1.39-2.05-1.83-3.39-.44-1.34-.66-2.9-.66-4.68 0-1.76.22-3.31.66-4.65.44-1.36 1.05-2.5 1.83-3.42.8-.92 1.76-1.61 2.88-2.07 1.12-.46 2.37-.69 3.75-.69s2.63.23 3.75.69c1.12.46 2.08 1.15 2.88 2.07.8.92 1.41 2.06 1.83 3.42.44 1.34.66 2.89.66 4.65 0 1.78-.22 3.34-.66 4.68-.42 1.34-1.03 2.47-1.83 3.39-.8.92-1.76 1.61-2.88 2.07-1.12.46-2.37.69-3.75.69Zm0-3.51c1.5 0 2.69-.5 3.57-1.5.9-1 1.35-2.4 1.35-4.2V9.91c0-1.8-.45-3.2-1.35-4.2-.88-1-2.07-1.5-3.57-1.5s-2.7.5-3.6 1.5c-.88 1-1.32 2.4-1.32 4.2v3.24c0 1.8.44 3.2 1.32 4.2.9 1 2.1 1.5 3.6 1.5ZM62.478 22l-6.84-20.94h4.05l3.21 10.2 1.86 6.96h.09l1.83-6.96 3.21-10.2h3.93L66.978 22h-4.5ZM91.707 22.36c-1.38 0-2.63-.23-3.75-.69a7.589 7.589 0 0 1-2.88-2.07c-.78-.92-1.39-2.05-1.83-3.39-.44-1.34-.66-2.9-.66-4.68 0-1.76.22-3.31.66-4.65.44-1.36 1.05-2.5 1.83-3.42.8-.92 1.76-1.61 2.88-2.07 1.12-.46 2.37-.69 3.75-.69s2.63.23 3.75.69c1.12.46 2.08 1.15 2.88 2.07.8.92 1.41 2.06 1.83 3.42.44 1.34.66 2.89.66 4.65 0 1.78-.22 3.34-.66 4.68-.42 1.34-1.03 2.47-1.83 3.39-.8.92-1.76 1.61-2.88 2.07-1.12.46-2.37.69-3.75.69Zm0-3.51c1.5 0 2.69-.5 3.57-1.5.9-1 1.35-2.4 1.35-4.2V9.91c0-1.8-.45-3.2-1.35-4.2-.88-1-2.07-1.5-3.57-1.5s-2.7.5-3.6 1.5c-.88 1-1.32 2.4-1.32 4.2v3.24c0 1.8.44 3.2 1.32 4.2.9 1 2.1 1.5 3.6 1.5Z" fill="#fff"/></svg>
